talent/images/code-of-talent-logo.svg

<svg width="173" height="25" viewBox="0 0 173 25" fill="none" xmlns="http://www.w3.org/2000/svg">
<path d="M38.9972 10.9566C39.8739 10.9566 40.7088 11.1426 41.5063 11.5129C42.3009 11.8833 42.999 12.4021 43.5993 13.0679L43.6166 13.1054L53.0639 24.6678H31.9941L33.6654 22.714H48.9902L42.1915 14.3784C41.7783 13.9106 41.2961 13.5492 40.7433 13.2943C40.1935 13.0394 39.6119 12.9104 38.9972 12.9104C38.3711 12.9104 37.7881 13.0394 37.2411 13.2943C36.6984 13.5492 36.219 13.9106 35.8059 14.3784L27.3906 24.6678H24.9334L34.3981 13.0679C34.9983 12.4021 35.6965 11.8833 36.4911 11.5129C37.2857 11.1426 38.1235 10.9566 38.9972 10.9566ZM112.872 22.714V24.6678H87.6319V22.714H112.872ZM59.8785 10.9761V22.714H83.2026V24.6678H58V10.9761H59.8785ZM122.06 10.9566C122.861 10.9566 123.634 11.1186 124.371 11.4439C125.109 11.7693 125.761 12.2342 126.324 12.8325L132.933 19.8755C133.785 20.7751 134.772 21.4739 135.901 21.9702C137.028 22.4665 138.204 22.714 139.432 22.714H141.063L141.027 10.9581H142.924L142.962 24.6678H139.432C137.955 24.6678 136.537 24.3724 135.177 23.7801C133.821 23.1878 132.627 22.3406 131.6 21.246L124.971 14.203C124.597 13.7876 124.156 13.4652 123.648 13.2448C123.14 13.0244 122.61 12.9119 122.06 12.9119H119.207V24.6678H117.329V10.9566H122.06ZM155.335 10.9881C156.123 10.9881 156.863 11.1201 157.552 11.435C158.239 11.7498 158.841 12.1517 159.354 12.687C159.631 12.9764 159.876 13.2958 160.092 13.6377C160.306 13.2943 160.551 12.9839 160.829 12.6945C161.341 12.1592 161.943 11.7483 162.629 11.4335C163.233 11.1592 163.875 11.0239 164.553 10.9944L164.846 10.9881H172.595V12.9374H164.848C164.322 12.9374 163.814 13.0214 163.351 13.2313C162.887 13.4412 162.471 13.7051 162.128 14.0635C161.783 14.4219 161.483 14.8402 161.286 15.3231C161.114 15.7369 160.979 16.1761 160.944 16.6369L160.935 16.869V24.6333H159.065V16.8675C159.065 16.3217 159.006 15.8104 158.805 15.3276C158.606 14.8447 158.374 14.4309 158.029 14.0725C157.688 13.7141 157.283 13.4412 156.82 13.2313C156.422 13.0527 156.001 12.9644 155.558 12.9428L155.335 12.9374H147.404V10.9881H155.335ZM7.93159 10.9881C8.71899 10.9881 9.45889 11.1201 10.1484 11.435C10.835 11.7498 11.4368 12.1517 11.9507 12.687C12.227 12.9764 12.4717 13.2958 12.6877 13.6377C12.9022 13.2943 13.1469 12.9839 13.4247 12.6945C13.9371 12.1592 14.5389 11.7483 15.2255 11.4335C15.8288 11.1592 16.4707 11.0239 17.1493 10.9944L17.4423 10.9881H25.1911V12.9374H17.4437C16.9183 12.9374 16.4102 13.0214 15.9467 13.2313C15.4832 13.4412 15.0671 13.7051 14.7245 14.0635C14.3791 14.4219 14.0797 14.8402 13.8824 15.3231C13.7097 15.7369 13.575 16.1761 13.5401 16.6369L13.5312 16.869V24.6333H11.6613V16.8675C11.6613 16.3217 11.6023 15.8104 11.4008 15.3276C11.2021 14.8447 10.9704 14.4309 10.6249 14.0725C10.2837 13.7141 9.87922 13.4412 9.41571 13.2313C9.01841 13.0527 8.59678 12.9644 8.15446 12.9428L7.93159 12.9374H0V10.9881H7.93159ZM112.872 16.845V18.7988H87.6319V16.845H112.872ZM112.872 10.9566V12.9104H87.6319V10.9566H112.872ZM65.4076 0.00299894V0.586293H59.8339C59.6395 0.586293 59.4567 0.625279 59.2869 0.703251C59.117 0.781224 58.9687 0.886186 58.8406 1.01814C58.7139 1.15009 58.6132 1.30454 58.5412 1.48298C58.4678 1.65991 58.4318 1.85035 58.4318 2.05277C58.4318 2.2552 58.4678 2.44563 58.5412 2.62257C58.6146 2.79951 58.7139 2.95395 58.8406 3.08741C58.9673 3.21936 59.1156 3.32432 59.2869 3.3993C59.4567 3.47577 59.6395 3.51326 59.8339 3.51326H65.4076V4.09655H59.8339C59.5647 4.09655 59.3099 4.04257 59.0709 3.93611C58.832 3.82964 58.6233 3.6827 58.4462 3.49826C58.2677 3.31383 58.1281 3.0964 58.0259 2.84749C57.9237 2.59858 57.8718 2.33317 57.8718 2.05277C57.8718 1.76787 57.9237 1.50247 58.0259 1.25206C58.1281 1.00314 58.2691 0.785722 58.4462 0.601287C58.6233 0.416852 58.832 0.269904 59.0709 0.163442C59.3099 0.0569798 59.5647 0.00299894 59.8339 0.00299894H65.4076ZM81.2852 0.00149947C81.5543 0.00149947 81.8077 0.0554804 82.0481 0.161943C82.287 0.268405 82.4958 0.415353 82.6728 0.599788C82.8499 0.784222 82.991 1.00165 83.0932 1.25056C83.1954 1.49947 83.2472 1.76637 83.2472 2.05127C83.2472 2.33167 83.1954 2.59708 83.0932 2.84599C82.991 3.0949 82.8499 3.31233 82.6728 3.49676C82.4958 3.6827 82.287 3.82815 82.0481 3.93461C81.8077 4.04257 81.5543 4.09655 81.2852 4.09655H75.7114V3.51176H81.2852C81.4795 3.51176 81.6623 3.47427 81.8322 3.3978C82.002 3.32132 82.1503 3.21786 82.2784 3.08591C82.4051 2.95395 82.5058 2.79801 82.5793 2.62107C82.6527 2.44413 82.6887 2.2537 82.6887 2.05127C82.6887 1.84885 82.6527 1.65841 82.5793 1.48148C82.5058 1.30454 82.4065 1.15009 82.2784 1.01664C82.1517 0.884687 82.0035 0.779724 81.8322 0.701752C81.6623 0.623779 81.4795 0.584793 81.2852 0.584793H75.7114V0.00149947H81.2852ZM92.2008 3.51176V4.09655H84.6636V3.51176H92.2008ZM72.8152 0C73.0282 0 73.2269 0.0419851 73.4126 0.125955C73.5983 0.209926 73.7609 0.323885 73.9006 0.470833C74.0402 0.616282 74.151 0.787221 74.2317 0.982152C74.3123 1.17708 74.3526 1.38551 74.3526 1.60743V2.49512C74.3526 2.71704 74.3123 2.92397 74.2317 3.1174C74.151 3.31083 74.0416 3.48027 73.9006 3.62572C73.7609 3.77117 73.5983 3.88662 73.4126 3.97059C73.2269 4.05456 73.0282 4.09655 72.8152 4.09655H68.3513C68.1383 4.09655 67.9396 4.05456 67.7539 3.97059C67.5683 3.88662 67.407 3.77117 67.266 3.62572C67.1263 3.48027 67.0155 3.31083 66.9349 3.1174C66.8543 2.92397 66.814 2.71704 66.814 2.49512V1.60743C66.814 1.38551 66.8543 1.17708 66.9349 0.982152C67.0155 0.787221 67.1249 0.617781 67.266 0.470833C67.4056 0.325385 67.5683 0.209926 67.7539 0.125955C67.9396 0.0419851 68.1383 0 68.3513 0H72.8152ZM112.729 1.75888V2.34217H107.049C106.869 2.34217 106.701 2.37666 106.544 2.44713C106.387 2.51761 106.249 2.61357 106.131 2.73653C106.013 2.85949 105.921 3.00194 105.853 3.16238C105.785 3.32432 105.752 3.49826 105.752 3.6857V4.09655H105.192V3.6872C105.192 3.42179 105.241 3.17288 105.338 2.93896C105.434 2.70504 105.568 2.50111 105.736 2.32568C105.905 2.15024 106.101 2.01229 106.325 1.91032C106.55 1.80986 106.79 1.75888 107.049 1.75888H112.729ZM102.312 0C102.525 0 102.723 0.0419851 102.909 0.125955C103.095 0.209926 103.258 0.323885 103.397 0.470833C103.537 0.616282 103.648 0.787221 103.728 0.982152C103.809 1.17708 103.849 1.38551 103.849 1.60743V2.49512C103.849 2.71704 103.809 2.92397 103.728 3.1174C103.648 3.31083 103.538 3.48027 103.397 3.62572C103.258 3.77117 103.095 3.88662 102.909 3.97059C102.725 4.05456 102.525 4.09655 102.312 4.09655H97.8479C97.6349 4.09655 97.4348 4.05456 97.2505 3.97059C97.0648 3.88662 96.9022 3.77117 96.7626 3.62572C96.6229 3.48027 96.5121 3.31083 96.4315 3.1174C96.3509 2.92397 96.3106 2.71704 96.3106 2.49512V1.60743C96.3106 1.38551 96.3509 1.17708 96.4315 0.982152C96.5121 0.787221 96.6229 0.617781 96.7626 0.470833C96.9022 0.325385 97.0648 0.209926 97.2505 0.125955C97.4348 0.0419851 97.6349 0 97.8479 0H102.312ZM72.8152 0.584793H68.3513C68.216 0.584793 68.0908 0.611784 67.9727 0.667264C67.8547 0.721245 67.7511 0.794719 67.6618 0.886186C67.5726 0.977654 67.502 1.08562 67.4516 1.21007C67.4013 1.33453 67.3754 1.46648 67.3754 1.60743V2.49512C67.3754 2.63607 67.4013 2.76652 67.4516 2.88948C67.502 3.01243 67.5726 3.1204 67.6618 3.21336C67.7511 3.30633 67.8561 3.3798 67.9727 3.43229C68.0908 3.48477 68.2175 3.51176 68.3513 3.51176H72.8152C72.9491 3.51176 73.0757 3.48627 73.1938 3.43229C73.3118 3.3798 73.4155 3.30633 73.5047 3.21336C73.594 3.1204 73.6645 3.01243 73.7149 2.88948C73.7653 2.76652 73.7912 2.63607 73.7912 2.49512V1.60743C73.7912 1.46798 73.7653 1.33453 73.7149 1.21007C73.6645 1.08562 73.594 0.977654 73.5047 0.886186C73.4155 0.794719 73.3118 0.721245 73.1938 0.667264C73.0757 0.613283 72.9505 0.584793 72.8152 0.584793ZM102.312 0.584793H97.8479C97.7126 0.584793 97.5874 0.611784 97.4693 0.667264C97.3513 0.721245 97.2477 0.794719 97.1584 0.886186C97.0692 0.977654 96.9986 1.08562 96.9482 1.21007C96.8979 1.33453 96.872 1.46648 96.872 1.60743V2.49512C96.872 2.63607 96.8979 2.76652 96.9482 2.88948C96.9986 3.01243 97.0692 3.1204 97.1584 3.21336C97.2477 3.30633 97.3513 3.3798 97.4693 3.43229C97.5874 3.48477 97.7141 3.51176 97.8479 3.51176H102.312C102.446 3.51176 102.572 3.48627 102.69 3.43229C102.808 3.3798 102.912 3.30633 103.001 3.21336C103.091 3.1204 103.161 3.01243 103.211 2.88948C103.262 2.76652 103.288 2.63607 103.288 2.49512V1.60743C103.288 1.46798 103.263 1.33453 103.211 1.21007C103.161 1.08562 103.091 0.977654 103.001 0.886186C102.912 0.794719 102.808 0.721245 102.69 0.667264C102.572 0.613283 102.446 0.584793 102.312 0.584793ZM92.2008 1.76038V2.34367H84.6636V1.76038H92.2008ZM92.2008 0.00149947V0.584793H84.6636V0.00149947H92.2008ZM112.729 0.00149947V0.584793H105.192V0.00149947H112.729Z" fill="#252A32"/>
</svg>

<svg width="173" height="25" fill="none" xmlns="http://www.w3.org/2000/svg"><path d="M38.997 10.957c.877 0 1.712.186 2.51.556.794.37 1.492.89 2.092 1.555l.018.037 9.447 11.563h-21.07l1.671-1.954H48.99l-6.799-8.336a4.34 4.34 0 00-1.448-1.084 4.102 4.102 0 00-1.746-.384 4.1 4.1 0 00-1.756.384 4.394 4.394 0 00-1.435 1.084l-8.415 10.29h-2.458l9.465-11.6a6.485 6.485 0 012.093-1.555 5.872 5.872 0 012.506-.556zm73.875 11.757v1.954h-25.24v-1.954h25.24zM59.879 10.976v11.738h23.324v1.954H58V10.976h1.879zm62.181-.02c.801 0 1.574.163 2.311.488.738.325 1.39.79 1.953 1.388l6.609 7.043a9.083 9.083 0 002.968 2.095 8.665 8.665 0 003.531.744h1.631l-.036-11.756h1.897l.038 13.71h-3.53a10.55 10.55 0 01-4.255-.888 10.787 10.787 0 01-3.577-2.534l-6.629-7.043a3.805 3.805 0 00-1.323-.958 3.954 3.954 0 00-1.588-.333h-2.853v11.756h-1.878V10.957h4.731zm33.275.032c.788 0 1.528.132 2.217.447.687.315 1.289.717 1.802 1.252.277.29.522.609.738.95a5.794 5.794 0 012.537-2.204 5.136 5.136 0 011.924-.439l.293-.006h7.749v1.95h-7.747c-.526 0-1.034.083-1.497.293-.464.21-.88.474-1.223.832a4.016 4.016 0 00-.842 1.26c-.172.414-.307.853-.342 1.314l-.009.232v7.764h-1.87v-7.765c0-.546-.059-1.058-.26-1.54-.199-.483-.431-.897-.776-1.255a3.81 3.81 0 00-1.209-.842 3.456 3.456 0 00-1.262-.288l-.223-.006h-7.931v-1.949h7.931zm-147.403 0c.787 0 1.527.132 2.216.447.687.315 1.289.717 1.803 1.252.276.29.52.609.737.95.214-.343.459-.653.737-.943a5.795 5.795 0 011.8-1.26 5.13 5.13 0 011.924-.44l.293-.006h7.75v1.95h-7.748c-.526 0-1.034.083-1.497.293-.464.21-.88.474-1.222.832a4.015 4.015 0 00-.843 1.26c-.172.414-.307.853-.342 1.314l-.009.232v7.764h-1.87v-7.765c0-.546-.059-1.058-.26-1.54-.199-.483-.43-.897-.776-1.255a3.808 3.808 0 00-1.21-.842 3.452 3.452 0 00-1.26-.288l-.223-.006H0v-1.949h7.932zm104.94 5.857v1.954h-25.24v-1.954h25.24zm0-5.888v1.953h-25.24v-1.953h25.24zM65.408.003v.583h-5.574c-.195 0-.377.04-.547.117a1.445 1.445 0 00-.746.78 1.48 1.48 0 00-.11.57 1.474 1.474 0 00.41 1.034 1.381 1.381 0 00.993.426h5.574v.584h-5.574a1.86 1.86 0 01-.763-.16 1.972 1.972 0 01-.625-.439 2.074 2.074 0 01-.574-1.445A2.093 2.093 0 0158.446.6c.177-.184.386-.331.625-.438.239-.106.494-.16.763-.16h5.574zM81.285.001c.27 0 .523.054.763.16.239.107.448.254.625.439a2.088 2.088 0 01.574 1.451 2.074 2.074 0 01-.574 1.446 1.947 1.947 0 01-.625.438c-.24.108-.494.162-.763.162h-5.574v-.585h5.574c.195 0 .377-.038.547-.114a1.437 1.437 0 00.747-.777c.074-.177.11-.367.11-.57a1.473 1.473 0 00-.857-1.35 1.297 1.297 0 00-.547-.116h-5.574V0h5.574zm10.916 3.51v.586h-7.537v-.585H92.2zM72.815 0c.213 0 .412.042.598.126.185.084.348.198.488.345a1.634 1.634 0 01.452 1.136v.888a1.613 1.613 0 01-.94 1.475 1.432 1.432 0 01-.598.127h-4.464a1.43 1.43 0 01-.597-.126 1.581 1.581 0 01-.488-.345 1.634 1.634 0 01-.452-1.13v-.889a1.62 1.62 0 01.94-1.481C67.94.042 68.138 0 68.35 0h4.464zm39.914 1.759v.583h-5.68c-.18 0-.348.035-.505.105a1.31 1.31 0 00-.413.29 1.336 1.336 0 00-.379.95v.41h-.56v-.41a1.949 1.949 0 01.544-1.362c.169-.175.365-.313.589-.415.225-.1.465-.151.724-.151h5.68zM102.312 0c.213 0 .411.042.597.126a1.608 1.608 0 01.819.856c.081.195.121.404.121.625v.888c0 .222-.04.429-.121.622a1.601 1.601 0 01-.819.854 1.424 1.424 0 01-.597.126h-4.464c-.213 0-.413-.042-.597-.126a1.564 1.564 0 01-.488-.345 1.634 1.634 0 01-.452-1.13v-.889a1.62 1.62 0 01.94-1.481c.184-.084.384-.126.597-.126h4.464zM72.815.585h-4.464a.876.876 0 00-.378.082.993.993 0 00-.521.543c-.05.125-.077.256-.077.397v.888a1.028 1.028 0 00.598.937c.118.053.245.08.378.08h4.464a.9.9 0 00.379-.08 1.024 1.024 0 00.597-.937v-.888c0-.139-.026-.272-.076-.397a.992.992 0 00-.21-.324 1.03 1.03 0 00-.311-.219.898.898 0 00-.379-.082zm29.497 0h-4.464a.876.876 0 00-.379.082.993.993 0 00-.521.543c-.05.125-.076.256-.076.397v.888a1.028 1.028 0 00.597.937c.118.053.245.08.379.08h4.464c.134 0 .26-.026.378-.08a1.005 1.005 0 00.521-.543 1.01 1.01 0 00.077-.394v-.888a1.023 1.023 0 00-.598-.94.9.9 0 00-.378-.082zM92.201 1.76v.584h-7.537V1.76H92.2zm0-1.759v.584h-7.537V0H92.2zm20.528 0v.584h-7.537V0h7.537z" fill="#252A32"/></svg>
